transition-masked.svg

<svg fill="currentColor" viewBox="0 0 24 24"><path d="M15 2c1.94 0 3.59.7 4.95 2.05C21.3 5.41 22 7.06 22 9c0 1.56-.5 2.96-1.42 4.2-.94 1.23-2.14 2.07-3.61 2.5l.03-.32V15c0-2.19-.77-4.07-2.35-5.65S11.19 7 9 7h-.37l-.33.03c.43-1.47 1.27-2.67 2.5-3.61C12.04 2.5 13.44 2 15 2M9 8a7 7 0 0 1 7 7 7 7 0 0 1-7 7 7 7 0 0 1-7-7 7 7 0 0 1 7-7m0 2a5 5 0 0 0-5 5 5 5 0 0 0 5 5 5 5 0 0 0 5-5 5 5 0 0 0-5-5"/></svg>

<svg  viewBox="0 0 24 24" fill="currentColor"><path  d="M15,2C16.94,2 18.59,2.7 19.95,4.05C21.3,5.41 22,7.06 22,9C22,10.56 21.5,11.96 20.58,13.2C19.64,14.43 18.44,15.27 16.97,15.7L17,15.38V15C17,12.81 16.23,10.93 14.65,9.35C13.07,7.77 11.19,7 9,7H8.63L8.3,7.03C8.73,5.56 9.57,4.36 10.8,3.42C12.04,2.5 13.44,2 15,2M9,8A7,7 0 0,1 16,15A7,7 0 0,1 9,22A7,7 0 0,1 2,15A7,7 0 0,1 9,8M9,10A5,5 0 0,0 4,15A5,5 0 0,0 9,20A5,5 0 0,0 14,15A5,5 0 0,0 9,10Z"/></svg>
